public/images/jorjin-logo.svg

<svg width="125" height="23" viewBox="0 0 125 23" fill="none" xmlns="http://www.w3.org/2000/svg">
<g clip-path="url(#clip0_272_144)">
<path d="M73.6334 16.1357C69.5607 18.1814 65.2461 17.9431 64.0485 15.4127C63.9771 15.2657 63.9176 15.1148 63.87 14.9599C62.3036 15.655 60.6341 17.0573 59.4246 18.2092L58.5363 20.3504C57.9375 21.7963 59.1351 22.9999 61.1734 22.9999H72.9156C74.9539 22.9999 77.1072 21.7963 77.706 20.3504L81.1997 11.9448C79.1456 13.1048 76.3419 14.65 74.7874 15.5041C74.4186 15.7305 74.0339 15.941 73.6294 16.1396L73.6334 16.1357Z" fill="#131C20"/>
<path d="M69.172 7.36073L69.1998 7.34484C69.2791 7.30511 69.3584 7.26539 69.4377 7.22567C73.5104 5.05676 77.825 5.41824 79.0226 7.82947C79.1217 8.04 79.1931 8.25848 79.2446 8.48094C81.1957 7.58318 83.2539 5.55727 84.3444 4.38145L85.0146 2.77265C85.7324 1.20753 84.5348 0.00390625 82.5004 0.00390625H70.7582C68.7199 0.00390625 66.4436 1.20753 65.8448 2.77265L62.363 11.1464C64.5481 9.90701 67.2883 8.39752 68.5296 7.71427C68.7358 7.59113 68.9499 7.47593 69.172 7.3647V7.36073Z" fill="#131C20"/>
<path d="M70.4014 9.75215C68.605 10.9558 67.7643 12.7632 68.605 13.7245C69.4457 14.809 71.48 14.5667 73.2765 13.2439C75.0729 12.0402 75.9136 10.2328 75.0729 9.27149C74.3551 8.30621 72.1978 8.54852 70.4014 9.75215Z" fill="#131C20"/>
<path d="M17.3059 12.8108H13.0469V20.8667H4.25907V18.1099H0V20.5688L2.41902 22.9999H14.8869L17.3059 20.5688V12.8108Z" fill="#131C20"/>
<path d="M99.2592 20.5688V12.8108H94.6313V20.7039V20.8667H94.4687H86.3749H86.2123V20.7039V18.1099H81.5845V20.5688L83.7418 22.7377L84.0035 22.9999H96.8402L97.3874 22.4517L99.2592 20.5688Z" fill="#131C20"/>
<path d="M105.684 12.8108H101.425V22.9999H105.684V12.8108Z" fill="#131C20"/>
<path d="M53.5992 20.7714V20.4655L56.0499 18.0066V15.2419L53.6388 12.8267H38.3633V22.9999H42.6263V14.9837H51.7908V18.1099H46.4412L51.3269 22.9999H55.8239L53.5992 20.7714Z" fill="#131C20"/>
<path d="M36.7811 20.6562V15.2419C36.3132 14.7731 34.83 13.2954 34.3621 12.8267H21.4976C21.0297 13.2954 19.5466 14.7731 19.0786 15.2419V20.6562L21.4183 23.0039H34.2867L36.789 20.6562H36.7811ZM32.522 20.8667H23.3337V14.9837H32.522V20.8667Z" fill="#131C20"/>
<path d="M120.741 22.9999L125 18.7336V15.218L122.581 12.8267H107.853V22.9999H112.116V14.9837H120.741V22.9999Z" fill="#131C20"/>
</g>
<defs>
<clipPath id="clip0_272_144">
<rect width="125" height="23" fill="white"/>
</clipPath>
</defs>
</svg>

<?xml version="1.0" encoding="UTF-8"?>
<svg id="Layer_1" xmlns="http://www.w3.org/2000/svg" xmlns:xlink="http://www.w3.org/1999/xlink" version="1.1" viewBox="0 0 125 23">
  <!-- Generator: Adobe Illustrator 30.1.0, SVG Export Plug-In . SVG Version: 2.1.1 Build 136)  -->
  <defs>
    <style>
      .st0 {
        fill: none;
      }

      .st1 {
        clip-path: url(#clippath);
      }
    </style>
    <clipPath id="clippath">
      <rect class="st0" y="0" width="125" height="23"/>
    </clipPath>
  </defs>
  <g class="st1">
    <g>
      <path d="M73.6,16.1c-4.1,2-8.4,1.8-9.6-.7,0-.1-.1-.3-.2-.5-1.6.7-3.2,2.1-4.4,3.2l-.9,2.1c-.6,1.4.6,2.6,2.6,2.6h11.7c2,0,4.2-1.2,4.8-2.6l3.5-8.4c-2.1,1.2-4.9,2.7-6.4,3.6-.4.2-.8.4-1.2.6h0Z"/>
      <path d="M69.2,7.4h0c0,0,.2,0,.2-.1,4.1-2.2,8.4-1.8,9.6.6,0,.2.2.4.2.7,2-.9,4-2.9,5.1-4.1l.7-1.6c.7-1.6-.5-2.8-2.5-2.8h-11.7c-2,0-4.3,1.2-4.9,2.8l-3.5,8.4c2.2-1.2,4.9-2.7,6.2-3.4.2-.1.4-.2.6-.3h0Z"/>
      <path d="M70.4,9.8c-1.8,1.2-2.6,3-1.8,4,.8,1.1,2.9.8,4.7-.5,1.8-1.2,2.6-3,1.8-4-.7-1-2.9-.7-4.7.5Z"/>
      <path d="M17.3,12.8h-4.3v8.1H4.3v-2.8H0v2.5l2.4,2.4h12.5l2.4-2.4v-7.8Z"/>
      <path d="M99.3,20.6v-7.8h-4.6v8.1h-8.4v-2.8h-4.6v2.5l2.2,2.2.3.3h12.8l.5-.5,1.9-1.9Z"/>
      <path d="M105.7,12.8h-4.3v10.2h4.3v-10.2Z"/>
      <path d="M53.6,20.8v-.3l2.5-2.5v-2.8l-2.4-2.4h-15.3v10.2h4.3v-8h9.2v3.1h-5.3l4.9,4.9h4.5l-2.2-2.2Z"/>
      <path d="M36.8,20.7v-5.4c-.5-.5-2-1.9-2.4-2.4h-12.9c-.5.5-2,1.9-2.4,2.4v5.4l2.3,2.3h12.9l2.5-2.3h0ZM32.5,20.9h-9.2v-5.9h9.2v5.9Z"/>
      <path d="M120.7,23l4.3-4.3v-3.5l-2.4-2.4h-14.7v10.2h4.3v-8h8.6v8Z"/>
    </g>
  </g>
</svg>
